X:1
T:Title
%%score ( 1 2 ) { 3 | 4 }
L:1/8
Q:1/4=100
M:6/8
K:C
V:1 treble nm="Grand Piano, Soprano"
V:2 treble 
V:3 treble nm="Choir Pad, Purdue, 76.76 D"
V:4 bass 
V:1
 [EG] [EG]2 [CE] [CF]2 | [FA] [EG]2- [EG] [CE]2 | [EG][B,D][CE] [DF] [EG]2 | %3
w: By~Thomas~Miles~Bowdish,~1889 * * *|||
 [DF] [CE]2- [CE]2- [CE]/ z/ | [EG] [EG]2 [CE] [CF]2 | [FA] [EG]2- [EG] [CE]2 | [Ec]AB [Dc] [DB]2 | %7
w: ||||
 [^FA] G2- G/ z/ =F2 | [EG] [DF]2 [FB] [FA]2 | [FB] [Ec]2- [Ec] [EG]2 | [CG] [CA]2 [CG] [DB]2 | %11
w: ||||
 [Ec] [Ec]2- [Ec] [DB]2 | [FA] [EG]2 [Ec] [Ge]2 | [Gc] [Fc]2- [Fc] [GB]2 | %14
w: |||
 [FA] [EG]2 [Ec][DB][Ec] | [Fd] [Ec]2- [Ec]3- | [Ec]3 z3 |] %17
w: |||
V:2
 x6 | x6 | x6 | x6 | x6 | x6 | z D2 z3 | x6 | x6 | x6 | x6 | x6 | x6 | x6 | x6 | x6 | x6 |] %17
V:3
 C C2 G, A,2 | C C2- C[K:bass] G,2 | G, G,2 G, G,2 | G, G,2- G,2- G,/ z/ | C C2 G, A,2 | %5
 C C2- C[K:bass] G,2 | G,^F,G, A, G,2 | C B,2- B,2- B,/ z/ | C G,2 G, G,2 | G, G,2- G, G,2 | %10
 E, F,2 G, G,2 | G, G,2- G,2- G,/ z/ | B, C2 G, G,2 | G, A,2- A, C2 | C C2 G, G,2 | G, G,2- G,3- | %16
 G,3 z3 |] %17
V:4
 C, C,2 C, C,2 | C, C,2- C, C,2 | .C,3 z G,,2 | G,, C,2- C,2- C,/ z/ | C, C,2 C, C,2 | %5
 C, C,2- C, C,2 | C, D,2 D, D,2 | D, G,2- G,2- G,/ z/ | .G,3 z G,,2 | G,, C,2- C, C,2 | %10
 .C,3 E, D,2 | C, G,,2- G,,2- G,,/ z/ | [G,,G,] C,2 C, C,2 | E, F,2- F, F,2 | F, G,2 z G,,2 | %15
 G,, C,2- C,3- | C,3 z3 |] %17

